X: 15011
T: George Booker
R: reel
M: 4/4
K: Amajor
|:A,2A,2 A,CEF|A2AF ABcA|A,2A,2 A,CEF|ABcA BAFE|
A,2 A,B, A,CEF|A2AF ABcd|edef =gfed|BAcA BAFE:|
|:(3AcAae ceae|ceae beae|Bebe Bebe|Bebe agfe|
(3AcAae ceae|ceae beae|d2ef =gfed|BAcA BAFE:|

